X: 091
T: Take me Jenny
B: 204 Favourite Country Dances
N: Published by Straight & Skillern, London ca.1775
F: http://imslp.org/wiki/204_Favourite_Country_Dances_(Various) p.46 #91
Z: 2014 John Chambers <jc:trillian.mit.edu>
N: The 2nd strain has initial repeat but no final repeat; not fixed.
M: C
L: 1/8
K: F
% - - - - - - - - - - - - - - - - - - - - - - - - -
|:\
A2GF GABG | A2GF cGGc |\
A2Bc defc | d2Fc AFF2 :|\
|:\
c>dc>f d>ed>f | c>dcB/A/ AGz2 |
c>dcf d>edf | c>dcB/A/ AGz2 |\
c>BA2 d>cB2 | f2c_e dBB2 |\
A>Bc2 d>efg | affc dff2 |]
% - - - - - - - - - - - - - - - - - - - - - - - - -
%%begintext align
%% Foot it change sides, foot it back again, cross over one
%% Cu. Right & Left at top.
%%endtext

%%sep 1 1 500
%%sep 1 1 500
